X:193 
T:Steeplechase (reel), The  
T:Carrigaline
B:CRE3.090 (LÃÂÃÂÃÂÃÂ©imrÃÂÃÂÃÂÃÂ¡s)
F:file ID: cre.3/193steep
R:reel
Q:180
M:C
L:1/8
K:C
C2CD EG~G2|Addc dfed|c3A G2cA|G2EC DA,~A,2|
G,CCB, CDEG|Addc dfed|c3A GAcA|GEDE C2 C2:|
c2ec gcea|gedc BcdB|c2ec gcea|gedc BGBd|
c2ec gcea|gedc Bd~d2|eg~g2 ea~a2|gedf ecc2:|

%%%

